X:382
T:Sheila Mulhaire's
R:slipjig
D:Warming Up (Sheila Mulhaire's)
Z:transcribed by Julie Ross
M:9/8
K:D
"Sheila Mulhaire's"
F2A AFA d2A|Bcd e2d cBA|F2A AFA d2A|Bcd edc d3|
F2A AFA d2A|Bcd e2d cBA|F2A AFA d2A|Bcd edc d2e||
fef def g2e|a2f efd cBA|fef def g2e|a2f edc d2e|
fef def g2e|a2f efd cBA|fef def g2e|a2f edc dAG||
"Alison's variation"
fef def g2e|a2f efd cBA|fef def g2e|a2f edc d2e|
fef def g2e|a2f efd cBA|faf gbg afd|ecA ABc d3||
